svg/color/fx1.svg

<?xml version="1.0" encoding="UTF-8" ?>
<!DOCTYPE svg PUBLIC "-//W3C//DTD SVG 1.1//EN" "http://www.w3.org/Graphics/SVG/1.1/DTD/svg11.dtd">
<svg width="250pt" height="250pt" viewBox="0 0 250 250" version="1.1" xmlns="http://www.w3.org/2000/svg">
<g id="#ffffffff">
<path fill="#ffffff" opacity="1.00" d=" M 0.00 0.00 L 250.00 0.00 L 250.00 250.00 L 0.00 250.00 L 0.00 0.00 M 74.10 83.45 C 84.06 96.59 93.70 109.97 103.65 123.11 C 93.04 137.66 82.31 152.12 71.63 166.61 C 79.47 166.65 87.32 166.72 95.16 166.58 C 101.91 157.43 108.65 148.28 115.57 139.26 C 122.28 148.40 129.10 157.46 135.80 166.61 C 143.32 166.67 150.85 166.67 158.38 166.61 C 149.81 154.68 141.05 142.88 132.68 130.81 C 141.69 130.71 150.70 130.87 159.71 130.73 C 163.75 124.41 168.03 118.24 171.99 111.87 C 160.00 111.54 147.99 111.96 136.00 111.66 C 138.33 108.64 140.59 105.56 142.89 102.52 C 154.31 102.50 165.72 102.55 177.13 102.50 C 181.43 96.18 185.72 89.85 190.03 83.54 C 170.91 83.42 151.79 83.51 132.67 83.49 C 127.11 91.48 121.41 99.41 115.32 106.99 C 109.70 99.09 103.93 91.28 98.34 83.36 C 90.26 83.29 82.18 83.29 74.10 83.45 Z" />
</g>
<g id="#ffb000ff">
<path fill="#ffb000" opacity="1.00" d=" M 74.10 83.45 C 82.18 83.29 90.26 83.29 98.34 83.36 C 103.93 91.28 109.70 99.09 115.32 106.99 C 121.41 99.41 127.11 91.48 132.67 83.49 C 151.79 83.51 170.91 83.42 190.03 83.54 C 185.72 89.85 181.43 96.18 177.13 102.50 C 165.72 102.55 154.31 102.50 142.89 102.52 C 140.59 105.56 138.33 108.64 136.00 111.66 C 147.99 111.96 160.00 111.54 171.99 111.87 C 168.03 118.24 163.75 124.41 159.71 130.73 C 150.70 130.87 141.69 130.71 132.68 130.81 C 141.05 142.88 149.81 154.68 158.38 166.61 C 150.85 166.67 143.32 166.67 135.80 166.61 C 129.10 157.46 122.28 148.40 115.57 139.26 C 108.65 148.28 101.91 157.43 95.16 166.58 C 87.32 166.72 79.47 166.65 71.63 166.61 C 82.31 152.12 93.04 137.66 103.65 123.11 C 93.70 109.97 84.06 96.59 74.10 83.45 Z" />
</g>
</svg>

<?xml version="1.0" encoding="utf-8"?>
<!-- Generator: Adobe Illustrator 26.0.3, SVG Export Plug-In . SVG Version: 6.00 Build 0)  -->
<svg version="1.1" id="Layer_1" xmlns="http://www.w3.org/2000/svg" xmlns:xlink="http://www.w3.org/1999/xlink" x="0px" y="0px"
	 viewBox="0 0 250 250" style="enable-background:new 0 0 250 250;" xml:space="preserve">
<style type="text/css">
	.st0{fill:#FFB000;}
</style>
<g id="_x23_ffb000ff">
	<path class="st0" d="M74.1,83.4c8.1-0.2,16.2-0.2,24.2-0.1c5.6,7.9,11.4,15.7,17,23.6c6.1-7.6,11.8-15.5,17.3-23.5
		c19.1,0,38.2-0.1,57.4,0.1c-4.3,6.3-8.6,12.6-12.9,19c-11.4,0.1-22.8,0-34.2,0c-2.3,3-4.6,6.1-6.9,9.1c12,0.3,24-0.1,36,0.2
		c-4,6.4-8.2,12.5-12.3,18.9c-9,0.1-18,0-27,0.1c8.4,12.1,17.1,23.9,25.7,35.8c-7.5,0.1-15.1,0.1-22.6,0
		c-6.7-9.1-13.5-18.2-20.2-27.4c-6.9,9-13.7,18.2-20.4,27.3c-7.8,0.1-15.7,0.1-23.5,0c10.7-14.5,21.4-28.9,32-43.5
		C93.7,110,84.1,96.6,74.1,83.4z"/>
</g>
</svg>
